assets/sections/multiple-user.svg

<svg xmlns="http://www.w3.org/2000/svg" fill="none" viewBox="0 0 24 24"><path fill="#5B4594" d="M24 13.7137H22.86V14.8612H24V13.7137Z"></path><path fill="#5B4594" d="M22.86 12.5737H20.5725V13.7137H22.86V12.5737Z"></path><path fill="#5B4594" d="M21.7125 10.2862H20.5725V11.4337H21.7125V10.2862Z"></path><path fill="#5B4594" d="M17.145 11.4337V9.14624H16.005V7.99874H14.8575V5.71874H16.005V4.57124H20.5725V5.71874H21.7125V10.2862H22.86V3.43124H21.7125V2.28374H20.5725V1.14374H16.005V2.28374H14.8575V3.43124H13.7175V6.85874H10.29V3.43124H9.14249V2.28374H8.00249V1.14374H3.42749V2.28374H2.28749V3.43124H1.14749V10.2862H2.28749V5.71874H3.42749V4.57124H8.00249V5.71874H9.14249V7.99874H8.00249V9.14624H6.86249V11.4337H3.42749V12.5737H6.86249V17.1412H8.00249V11.4337H9.14249V10.2862H14.8575V11.4337H16.005V17.1412H17.145V12.5737H20.5725V11.4337H17.145Z"></path><path fill="#5B4594" d="M19.4325 21.7162H18.285V22.8562H19.4325V21.7162Z"></path><path fill="#5B4594" d="M18.285 20.5762H17.145V21.7162H18.285V20.5762Z"></path><path fill="#5B4594" d="M17.145 19.4287H14.8575V20.5762H17.145V19.4287Z"></path><path fill="#5B4594" d="M16.005 17.1412H14.8575V18.2887H16.005V17.1412Z"></path><path fill="#5B4594" d="M14.8575 12.5737H13.7175V14.8612H14.8575V12.5737Z"></path><path fill="#5B4594" d="M14.8575 18.2887H9.14249V19.4287H14.8575V18.2887Z"></path><path fill="#5B4594" d="M13.7175 16.0013H10.29V17.1413H13.7175V16.0013Z"></path><path fill="#5B4594" d="M10.29 12.5737H9.14249V14.8612H10.29V12.5737Z"></path><path fill="#5B4594" d="M9.1425 17.1412H8.0025V18.2887H9.1425V17.1412Z"></path><path fill="#5B4594" d="M9.14249 19.4287H6.86249V20.5762H9.14249V19.4287Z"></path><path fill="#5B4594" d="M6.8625 20.5762H5.715V21.7162H6.8625V20.5762Z"></path><path fill="#5B4594" d="M5.71501 21.7162H4.57501V22.8562H5.71501V21.7162Z"></path><path fill="#5B4594" d="M3.42751 10.2862H2.28751V11.4337H3.42751V10.2862Z"></path><path fill="#5B4594" d="M3.42749 12.5737H1.14749V13.7137H3.42749V12.5737Z"></path><path fill="#5B4594" d="M1.1475 13.7137H0V14.8612H1.1475V13.7137Z"></path></svg>

<svg xmlns="http://www.w3.org/2000/svg" fill="none" viewBox="0 0 24 24"><path fill="#5B4594" d="M24 13.714h-1.14v1.147H24v-1.147ZM22.86 12.574h-2.287v1.14h2.287v-1.14ZM21.712 10.286h-1.14v1.148h1.14v-1.148Z"/><path fill="#5B4594" d="M17.145 11.434V9.146h-1.14V8h-1.147v-2.28h1.147V4.57h4.568V5.72h1.14v4.567h1.147V3.431h-1.148V2.284h-1.14v-1.14h-4.567v1.14h-1.147V3.43h-1.14V6.86H10.29V3.43H9.142V2.284h-1.14v-1.14H3.427v1.14h-1.14V3.43h-1.14v6.855h1.14V5.72h1.14V4.57h4.575V5.72h1.14v2.28h-1.14v1.147h-1.14v2.288H3.427v1.14h3.435v4.567h1.14v-5.707h1.14v-1.148h5.716v1.148h1.147v5.707h1.14v-4.567h3.428v-1.14h-3.428ZM19.433 21.716h-1.148v1.14h1.148v-1.14ZM18.285 20.576h-1.14v1.14h1.14v-1.14ZM17.145 19.429h-2.287v1.147h2.287V19.43Z"/><path fill="#5B4594" d="M16.005 17.141h-1.147v1.148h1.147V17.14ZM14.857 12.574h-1.14v2.287h1.14v-2.287ZM14.857 18.289H9.143v1.14h5.716v-1.14ZM13.717 16.001H10.29v1.14h3.428v-1.14ZM10.29 12.574H9.142v2.287h1.148v-2.287ZM9.143 17.141h-1.14v1.148h1.14V17.14ZM9.142 19.429h-2.28v1.147h2.28V19.43ZM6.862 20.576H5.715v1.14h1.147v-1.14ZM5.715 21.716h-1.14v1.14h1.14v-1.14ZM3.428 10.286h-1.14v1.148h1.14v-1.148ZM3.427 12.574h-2.28v1.14h2.28v-1.14ZM1.147 13.714H0v1.147h1.147v-1.147Z"/></svg>
